X: 5
T:Secouette de Boqueho
R:Avant Deux
C:Traditionnel
H:Festival Boqueho Mai 1998
A:Cotes d'Armor (Bretagne)
Z:J.M HENRY <Jmarchenry:aol.COM>
M:2/4
L:1/4
K:G
B2 | AG  | AA | BG | B2  | AG | AA | B2  | B2 | AG | AA | BG  | B2 | AG | AA | B2 |
B2 | B>A | Bc | d2 | d>c | Bd | cB | A2- | AB | dB | d2 | B>A |
GB | dB  | dB | A2 | GB  | dB | d2 | B>A | GB | dB | dB | A2  | G2 |]
